X: 19865
T: Jessie Over The Bridge
R: reel
M: 4/4
K: Edorian
GEBE GE~E2|GEBE D2BA|GEBE GABd|1 edce d2BA:|2 edce d3A||
Bdef g2ge|agfa gfed|Bdef g2e/f/g|afge d2BA|
Bdef g2ge|abgf gfed|Bdef g2ge|afge d2BA||

